common/src/main/resources/icons/codeWithMe/cwmPermissionFull.svg

<svg xmlns="http://www.w3.org/2000/svg" width="16" height="16" data-big="true" viewBox="0 0 24 24"><path fill="#F06292" d="M7.5 2c2 0 3.6 1.2 4.2 3H21v3h-3v3h-3V8h-3.3c-.6 1.8-2.3 3-4.2 3C5 11 3 9 3 6.5S5 2 7.5 2m0 3C6.7 5 6 5.7 6 6.5S6.7 8 7.5 8 9 7.3 9 6.5 8.3 5 7.5 5m0 8c2 0 3.6 1.2 4.2 3H21v3h-1v3h-2v-3h-2v3h-3v-3h-1.3c-.6 1.8-2.3 3-4.2 3C5 22 3 20 3 17.5S5 13 7.5 13m0 3c-.8 0-1.5.7-1.5 1.5S6.7 19 7.5 19 9 18.3 9 17.5 8.3 16 7.5 16"/></svg>

<!--
  - The MIT License (MIT)
  -
  - Copyright (c) 2015-2024 Elior "Mallowigi" Boukhobza
  -
  - Permission is hereby granted, free of charge, to any person obtaining a copy
  - of this software and associated documentation files (the "Software"), to deal
  - in the Software without restriction, including without limitation the rights
  - to use, copy, modify, merge, publish, distribute, sublicense, and/or sell
  - copies of the Software, and to permit persons to whom the Software is
  - furnished to do so, subject to the following conditions:
  -
  - The above copyright notice and this permission notice shall be included in all
  - copies or substantial portions of the Software.
  -
  - THE SOFTWARE IS PROVIDED "AS IS", WITHOUT WARRANTY OF ANY KIND, EXPRESS OR
  - IMPLIED, INCLUDING BUT NOT LIMITED TO THE WARRANTIES OF MERCHANTABILITY,
  - FITNESS FOR A PARTICULAR PURPOSE AND NONINFRINGEMENT. IN NO EVENT SHALL THE
  - AUTHORS OR COPYRIGHT HOLDERS BE LIABLE FOR ANY CLAIM, DAMAGES OR OTHER
  - LIABILITY, WHETHER IN AN ACTION OF CONTRACT, TORT OR OTHERWISE, ARISING FROM,
  - OUT OF OR IN CONNECTION WITH THE SOFTWARE OR THE USE OR OTHER DEALINGS IN THE
  - SOFTWARE.
  -->

<svg data-big="true" width="16px" height="16px" xmlns="http://www.w3.org/2000/svg" viewBox="0 0 24 24">
  <path fill="#F06292"
        d="M7.5 2C9.5 2 11.1 3.2 11.7 5H21V8H18V11H15V8H11.7C11.1 9.8 9.4 11 7.5 11C5 11 3 9 3 6.5S5 2 7.5 2M7.5 5C6.7 5 6 5.7 6 6.5S6.7 8 7.5 8 9 7.3 9 6.5 8.3 5 7.5 5M7.5 13C9.5 13 11.1 14.2 11.7 16H21V19H20V22H18V19H16V22H13V19H11.7C11.1 20.8 9.4 22 7.5 22C5 22 3 20 3 17.5S5 13 7.5 13M7.5 16C6.7 16 6 16.7 6 17.5S6.7 19 7.5 19 9 18.3 9 17.5 8.3 16 7.5 16Z"/>
</svg>
